packages/bpk-svgs/src/icons/account/account--wallet.svg

<svg xmlns="http://www.w3.org/2000/svg" viewBox="0 0 24 24"><path d="M21 11h-8v6h8a1 1 0 0 0 1-1v-4a1 1 0 0 0-1-1zm-5 5a2 2 0 1 1 2-2 2 2 0 0 1-2 2zm-4 2h9a2 2 0 0 1-2 2H4a2 2 0 0 1-2-2V6a2 2 0 0 1 2-2h17v2H5a1 1 0 0 0 0 2h16v2h-9z"/></svg>

<svg id="icon" xmlns="http://www.w3.org/2000/svg" viewBox="0 0 24 24"><title>account--wallet</title><path d="M21,11H13v6h8a1,1,0,0,0,1-1V12A1,1,0,0,0,21,11Zm-5,5a2,2,0,1,1,2-2A2,2,0,0,1,16,16Zm-4,2h9a2,2,0,0,1-2,2H4a2,2,0,0,1-2-2V6A2,2,0,0,1,4,4H21V6H5A1,1,0,0,0,5,8H21v2H12Z" fill="#231f20"/></svg>
